public/svg/home.svg

<svg height="34" viewBox="0 0 36 34" width="36" xmlns="http://www.w3.org/2000/svg" xmlns:xlink="http://www.w3.org/1999/xlink"><linearGradient id="a" x1="50%" x2="50%" y1="0%" y2="100%"><stop offset="0" stop-color="#52b9ec"/><stop offset="1" stop-color="#5b73df"/></linearGradient><path d="m33.3680355 14.7158686c-.0010337-.0007743-.0018091-.0018068-.0025844-.0025812l-13.8180693-13.80080544c-.5889872-.58853149-1.3720637-.91248196-2.2050193-.91248196s-1.6160321.32395047-2.2052778.91248196l-13.81083285 13.79383594c-.00465197.0046463-.00956236.0095507-.01395585.014197-1.20950426 1.2150078-1.20743673 3.1863302.00594416 4.3982405.55435611.5539423 1.28626125.8745371 2.06907927.9083518.03204669.0030976.06409339.0046463.09639851.0046463h.55047953v10.1562984c0 2.0100415 1.63748269 3.6452814 3.64996341 3.6452814h5.40607052c.5481536 0 .9924137-.4439799.9924137-.9912109v-7.9627279c0-.9171282.7471532-1.6631177 1.6653944-1.6631177h3.1886461c.9182411 0 1.6651359.7459895 1.6651359 1.6631177v7.9627279c0 .547231.4442601.9912109.9924137.9912109h5.4060705c2.0127392 0 3.6499634-1.6352399 3.6499634-3.6452814v-10.1562984h.5106796c.8326971 0 1.6157736-.3239504 2.2052777-.91274 1.2146731-1.2137171 1.21519-3.1886533.0018091-4.4031449zm-1.4054026 3.0015107c-.2142476.213988-.4990497.3319524-.8016842.3319524h-1.5030933c-.5481535 0-.9924138.4437218-.9924138.9912109v11.1475093c0 .9168701-.7468947 1.6628596-1.6651359 1.6628596h-4.4136567v-6.971517c0-2.0100415-1.6372243-3.6455396-3.6499634-3.6455396h-3.1886461c-2.0127392 0-3.6502219 1.6354981-3.6502219 3.6455396v6.971517h-4.41365672c-.91798272 0-1.6651359-.7459895-1.6651359-1.6628596v-11.1475093c0-.5474891-.44426024-.9912109-.99241376-.9912109h-1.47724922c-.01550646-.0010325-.0307545-.0018069-.04651939-.0020651-.2956566-.0051625-.57296386-.1223526-.78075049-.3301455-.44193428-.4413986-.44193428-1.1597684 0-1.6014252.00025842 0 .00025842-.0002581.00051685-.0005162l.00077534-.0007744 13.81755239-13.80028916c.2139892-.21398797.4985329-.33169427.8014258-.33169427.3026345 0 .5871781.1177063.8014258.33169427l13.8144511 13.79744976c.0020676.002065.0043935.00413.006461.0061951.4396083.4421729.438833 1.158994-.0020675 1.5996183z" fill="url(#a)" transform="translate(.639794)"/></svg>

<?xml version="1.0" encoding="UTF-8"?>
<svg width="36px" height="34px" viewBox="0 0 36 34" version="1.1" xmlns="http://www.w3.org/2000/svg" xmlns:xlink="http://www.w3.org/1999/xlink">
    <title>home</title>
    <defs>
        <linearGradient x1="50%" y1="0%" x2="50%" y2="100%" id="linearGradient-1">
            <stop stop-color="#52B9EC" offset="0%"></stop>
            <stop stop-color="#5B73DF" offset="100%"></stop>
        </linearGradient>
    </defs>
    <g id="Page-1" stroke="none" stroke-width="1" fill="none" fill-rule="evenodd">
        <g id="mobile-menu-dashboard" transform="translate(-274.000000, -67.000000)" fill="url(#linearGradient-1)" fill-rule="nonzero">
            <g id="home" transform="translate(274.639794, 67.000000)">
                <path d="M33.3680355,14.7158686 C33.3670018,14.7150943 33.3662264,14.7140618 33.3654511,14.7132874 L19.5473818,0.91248196 C18.9583946,0.323950466 18.1753181,0 17.3423625,0 C16.5094069,0 15.7263304,0.323950466 15.1370847,0.91248196 L1.32625185,14.7063179 C1.32159988,14.7109642 1.31668949,14.7158686 1.312296,14.7205149 C0.102791743,15.9355227 0.104859272,17.9068451 1.31824016,19.1187554 C1.87259627,19.6726977 2.60450141,19.9932925 3.38731943,20.0271072 C3.41936612,20.0302048 3.45141282,20.0317535 3.48371794,20.0317535 L4.03419747,20.0317535 L4.03419747,30.1880519 C4.03419747,32.1980934 5.67168016,33.8333333 7.68416088,33.8333333 L13.0902314,33.8333333 C13.638385,33.8333333 14.0826451,33.3893534 14.0826451,32.8421224 L14.0826451,24.8793945 C14.0826451,23.9622663 14.8297983,23.2162768 15.7480395,23.2162768 L18.9366856,23.2162768 C19.8549267,23.2162768 20.6018215,23.9622663 20.6018215,24.8793945 L20.6018215,32.8421224 C20.6018215,33.3893534 21.0460816,33.8333333 21.5942352,33.8333333 L27.0003057,33.8333333 C29.0130449,33.8333333 30.6502691,32.1980934 30.6502691,30.1880519 L30.6502691,20.0317535 L31.1609487,20.0317535 C31.9936458,20.0317535 32.7767223,19.7078031 33.3662264,19.1190135 C34.5808995,17.9052964 34.5814164,15.9303602 33.3680355,14.7158686 L33.3680355,14.7158686 Z M31.9626329,17.7173793 C31.7483853,17.9313673 31.4635832,18.0493317 31.1609487,18.0493317 L29.6578554,18.0493317 C29.1097019,18.0493317 28.6654416,18.4930535 28.6654416,19.0405426 L28.6654416,30.1880519 C28.6654416,31.104922 27.9185469,31.8509115 27.0003057,31.8509115 L22.586649,31.8509115 L22.586649,24.8793945 C22.586649,22.869353 20.9494247,21.2338549 18.9366856,21.2338549 L15.7480395,21.2338549 C13.7353003,21.2338549 12.0978176,22.869353 12.0978176,24.8793945 L12.0978176,31.8509115 L7.68416088,31.8509115 C6.76617816,31.8509115 6.01902498,31.104922 6.01902498,30.1880519 L6.01902498,19.0405426 C6.01902498,18.4930535 5.57476474,18.0493317 5.02661122,18.0493317 L3.549362,18.0493317 C3.53385554,18.0482992 3.5186075,18.0475248 3.50284261,18.0472666 C3.20718601,18.0421041 2.92987875,17.924914 2.72209212,17.7171211 C2.28015784,17.2757225 2.28015784,16.5573527 2.72209212,16.1156959 C2.72235054,16.1156959 2.72235054,16.1154378 2.72260897,16.1151797 L2.72338431,16.1144053 L16.5409367,2.31411614 C16.7549259,2.10012817 17.0394696,1.98242187 17.3423625,1.98242187 C17.644997,1.98242187 17.9295406,2.10012817 18.1437883,2.31411614 L31.9582394,16.1115659 C31.960307,16.1136309 31.9626329,16.1156959 31.9647004,16.117761 C32.4043087,16.5599339 32.4035334,17.276755 31.9626329,17.7173793 Z" id="Shape"></path>
            </g>
        </g>
    </g>
</svg>
